icons/mgc/power_outline.svg

<svg width="24" height="24" viewBox="0 0 24 24" fill="none" xmlns="http://www.w3.org/2000/svg">
  <path
    d="M8.70678 12.7184H10.4292V16.7316C10.4292 17.3225 11.1649 17.6012 11.5551 17.1552L15.7746 12.3616C16.1425 11.9436 15.8471 11.2914 15.2897 11.2914H13.5673V7.27814C13.5673 6.6873 12.8315 6.4086 12.4413 6.85452L8.22185 11.6481C7.85954 12.0662 8.15496 12.7184 8.70678 12.7184Z"
    fill="currentColor" />
  <path
    d="M21.5 12C21.5 17.2467 17.2467 21.5 12 21.5C6.7533 21.5 2.5 17.2467 2.5 12C2.5 6.7533 6.7533 2.5 12 2.5C17.2467 2.5 21.5 6.7533 21.5 12Z"
    stroke="currentColor" stroke-width="2" />
</svg>

<svg xmlns="http://www.w3.org/2000/svg" width="24" height="24" viewBox="0 0 24 24" fill="none"><path d="M8.707 12.718h1.722v4.014c0 .59.736.87 1.126.423l4.22-4.793a.644.644 0 0 0-.485-1.07h-1.723V7.277c0-.59-.735-.87-1.126-.423l-4.22 4.793a.646.646 0 0 0 .486 1.07" fill="currentColor"/><path d="M21.5 12a9.5 9.5 0 1 1-19 0 9.5 9.5 0 0 1 19 0Z" stroke="currentColor" stroke-width="2"/></svg>
